src/images/youtube-icon.svg

<svg width="16" height="13" viewBox="0 0 16 13" fill="none" xmlns="http://www.w3.org/2000/svg">
  <path d="M15.6344 2.02963C16 3.4775 16 6.5 16 6.5C16 6.5 16 9.5225 15.6344 10.9704C15.4312 11.7707 14.8368 12.4004 14.084 12.6132C12.7168 13 8 13 8 13C8 13 3.2856 13 1.916 12.6132C1.16 12.3971 0.5664 11.7683 0.3656 10.9704C2.38419e-08 9.5225 0 6.5 0 6.5C0 6.5 2.38419e-08 3.4775 0.3656 2.02963C0.5688 1.22931 1.1632 0.599625 1.916 0.38675C3.2856 -1.45286e-07 8 0 8 0C8 0 12.7168 -1.45286e-07 14.084 0.38675C14.84 0.602875 15.4336 1.23175 15.6344 2.02963ZM6.4 9.34375L11.2 6.5L6.4 3.65625V9.34375Z" fill="#1F1E25"/>
</svg>

<svg width="16" height="13" viewBox="0 0 16 13" fill="none" xmlns="http://www.w3.org/2000/svg"><path d="M15.634 2.03C16 3.478 16 6.5 16 6.5s0 3.023-.366 4.47c-.203.8-.797 1.43-1.55 1.643C12.717 13 8 13 8 13s-4.714 0-6.084-.387c-.756-.216-1.35-.845-1.55-1.643C0 9.523 0 6.5 0 6.5s0-3.022.366-4.47c.203-.8.797-1.43 1.55-1.643C3.286 0 8 0 8 0s4.717 0 6.084.387c.756.216 1.35.845 1.55 1.643zM6.4 9.344L11.2 6.5 6.4 3.656v5.688z" fill="#1F1E25"/></svg>
